X:0515
T:The Rope Dance.
M:6/8
L:1/8
Q:3/8=120
I: :| ::
Z:Jack Campin * www.campin.me.uk * 2009
K:G
B/c/|def gfg|d2B Bcd|edc BAG|F2D DBc|
     def gfg|d2B Bcd|edc BcA|G3  G2::
B   |c2A ABA|B2G GAG|c2A ABA|B2G GBc|
     def gfg|d2B Bcd|edc BcA|G3  G2:|
<end>
<start>
